public/apps/atelier-des-idees/src/img/icn_link.svg

<svg xmlns="http://www.w3.org/2000/svg" width="15" height="15" viewBox="0 0 15 15"><path fill="#1D5FD1" fill-rule="evenodd" d="M13.967,0.95 C13.3586385,0.339956373 12.5315366,-0.00139871461 11.67,0.002 C10.8,0.002 9.984,0.339 9.373,0.95 L7.105,3.218 C6.31579783,4.00933813 5.989035,5.15093037 6.24,6.24 C5.15082041,5.98467306 4.00712345,6.31203833 3.218,7.105 L0.95,9.373 C-0.316090371,10.6426358 -0.316090371,12.6973642 0.95,13.967 C1.55836145,14.5770436 2.38546339,14.9183987 3.247,14.915 C4.117,14.915 4.933,14.579 5.545,13.967 L7.812,11.7 C8.60154269,10.9084497 8.92833239,9.76638584 8.677,8.677 C9.76617959,8.93232694 10.9098765,8.60496167 11.699,7.812 L13.967,5.545 C15.2343057,4.27547648 15.2343057,2.21952352 13.967,0.95 Z M7.105,10.993 L4.837,13.26 C4.41569188,13.6818377 3.8431882,13.9176804 3.247,13.915 C2.6508118,13.9176804 2.07830812,13.6818377 1.657,13.26 C0.780740423,12.3810922 0.780740423,10.9589078 1.657,10.08 L3.925,7.812 C4.34624503,7.39006778 4.91878999,7.15420807 5.515,7.157 C5.945,7.157 6.356,7.277 6.71,7.5 L4.772,9.438 C4.64202171,9.56353724 4.5898937,9.74943895 4.63565142,9.92425366 C4.68140914,10.0990684 4.81793162,10.2355909 4.99274634,10.2813486 C5.16756105,10.3271063 5.35346276,10.2749783 5.479,10.145 L7.418,8.207 C7.963,9.075 7.86,10.237 7.105,10.992 L7.105,10.993 Z M13.26,4.838 L10.992,7.105 C10.5706919,7.52683767 9.9981882,7.76268038 9.402,7.76 C8.971,7.76 8.561,7.64 8.207,7.417 L10.145,5.479 C10.2749783,5.35346276 10.3271063,5.16756105 10.2813486,4.99274634 C10.2355909,4.81793162 10.0990684,4.68140914 9.92425366,4.63565142 C9.74943895,4.5898937 9.56353724,4.64202171 9.438,4.772 L7.499,6.71 C6.94262335,5.82191971 7.07237441,4.66742546 7.812,3.925 L10.079,1.657 C10.5003081,1.23516233 11.0728118,0.999319617 11.669,1.002 C12.2655632,0.998518221 12.8387153,1.23389383 13.2606503,1.65564098 C13.6825853,2.07738813 13.9182161,2.65043527 13.915,3.247 C13.915,3.85 13.683,4.415 13.26,4.837 L13.26,4.838 Z"/></svg>

<svg viewBox="0 0 15 15"><path fill="#1D5FD1" fill-rule="evenodd" d="M13.967.95A3.226 3.226 0 0011.67.002c-.87 0-1.686.337-2.297.948L7.105 3.218A3.247 3.247 0 006.24 6.24a3.225 3.225 0 00-3.022.865L.95 9.373a3.253 3.253 0 000 4.594c.608.61 1.435.951 2.297.948.87 0 1.686-.336 2.298-.948L7.812 11.7a3.247 3.247 0 00.865-3.023 3.225 3.225 0 003.022-.865l2.268-2.267a3.252 3.252 0 000-4.595zM7.105 10.993L4.837 13.26a2.233 2.233 0 01-1.59.655 2.233 2.233 0 01-1.59-.655 2.252 2.252 0 010-3.18l2.268-2.268a2.232 2.232 0 011.59-.655c.43 0 .841.12 1.195.343L4.772 9.438a.5.5 0 10.707.707l1.939-1.938c.545.868.442 2.03-.313 2.785v.001zm6.155-6.155l-2.268 2.267a2.233 2.233 0 01-1.59.655c-.431 0-.841-.12-1.195-.343l1.938-1.938a.5.5 0 10-.707-.707L7.499 6.71a2.252 2.252 0 01.313-2.785l2.267-2.268a2.233 2.233 0 011.59-.655 2.233 2.233 0 012.246 2.245c0 .603-.232 1.168-.655 1.59v.001z"/></svg>
